Newaita-dark/actions/16/view-calendar-upcoming-events.svg

<svg height="16" viewBox="0 0 16 16" width="16" xmlns="http://www.w3.org/2000/svg"><g fill="#e0e0e0"><path d="m2.644531 1.449219c-.730469 0-1.320312.589843-1.320312 1.320312v10.585938c0 .734375.589843 1.324219 1.320312 1.324219h10.585938c.734375 0 1.324219-.589844 1.324219-1.324219v-10.585938c0-.730469-.589844-1.320312-1.324219-1.320312zm.664063 1.320312h9.261718c.363282 0 .660157.296875.660157.664063v9.261718c0 .363282-.296875.660157-.660157.660157h-9.261718c-.367188 0-.664063-.296875-.664063-.660157v-9.261718c0-.367188.296875-.664063.664063-.664063zm0 0"/><path d="m11.246094 3.433594c.363281 0 .660156.296875.660156.660156 0 .367188-.296875.660156-.660156.660156-.367188 0-.660156-.292968-.660156-.660156 0-.363281.292968-.660156.660156-.660156zm0 0"/><path d="m1.984375 5.417969h11.90625v.660156h-11.90625zm0 0"/></g><path d="m7.609375 7.402344h.660156c.183594 0 .332031.148437.332031.332031v1.984375c0 .179688-.148437.328125-.332031.328125h-.660156c-.183594 0-.332031-.148437-.332031-.328125v-1.984375c0-.183594.148437-.332031.332031-.332031zm0 0" fill="#f44336"/><path d="m7.9375 10.710938c.367188 0 .664062.292968.664062.660156 0 .363281-.296874.660156-.664062.660156-.363281 0-.660156-.296875-.660156-.660156 0-.367188.296875-.660156.660156-.660156zm0 0" fill="#f44336"/><path d="m4.628906 3.433594c.367188 0 .664063.296875.664063.660156 0 .367188-.296875.660156-.664063.660156-.363281 0-.660156-.292968-.660156-.660156 0-.363281.296875-.660156.660156-.660156zm0 0" fill="#e0e0e0"/></svg>

<svg xmlns="http://www.w3.org/2000/svg" xmlns:xlink="http://www.w3.org/1999/xlink" width="16px" height="16px" viewBox="0 0 16 16" version="1.1">
<g id="surface1">
     <defs>
  <style id="current-color-scheme" type="text/css">
   .ColorScheme-Text { color:#eeeeee; } .ColorScheme-Highlight { color:#424242; }
  </style>
 </defs>
<path style="fill:currentColor" class="ColorScheme-Text" d="M 2.644531 1.449219 C 1.914062 1.449219 1.324219 2.039062 1.324219 2.769531 L 1.324219 13.355469 C 1.324219 14.089844 1.914062 14.679688 2.644531 14.679688 L 13.230469 14.679688 C 13.964844 14.679688 14.554688 14.089844 14.554688 13.355469 L 14.554688 2.769531 C 14.554688 2.039062 13.964844 1.449219 13.230469 1.449219 Z M 3.308594 2.769531 L 12.570312 2.769531 C 12.933594 2.769531 13.230469 3.066406 13.230469 3.433594 L 13.230469 12.695312 C 13.230469 13.058594 12.933594 13.355469 12.570312 13.355469 L 3.308594 13.355469 C 2.941406 13.355469 2.644531 13.058594 2.644531 12.695312 L 2.644531 3.433594 C 2.644531 3.066406 2.941406 2.769531 3.308594 2.769531 Z M 3.308594 2.769531 "/>
     <defs>
  <style id="current-color-scheme" type="text/css">
   .ColorScheme-Text { color:#eeeeee; } .ColorScheme-Highlight { color:#424242; }
  </style>
 </defs>
<path style="fill:currentColor" class="ColorScheme-Text" d="M 11.246094 3.433594 C 11.609375 3.433594 11.90625 3.730469 11.90625 4.09375 C 11.90625 4.460938 11.609375 4.753906 11.246094 4.753906 C 10.878906 4.753906 10.585938 4.460938 10.585938 4.09375 C 10.585938 3.730469 10.878906 3.433594 11.246094 3.433594 Z M 11.246094 3.433594 "/>
     <defs>
  <style id="current-color-scheme" type="text/css">
   .ColorScheme-Text { color:#eeeeee; } .ColorScheme-Highlight { color:#424242; }
  </style>
 </defs>
<path style="fill:currentColor" class="ColorScheme-Text" d="M 1.984375 5.417969 L 13.890625 5.417969 L 13.890625 6.078125 L 1.984375 6.078125 Z M 1.984375 5.417969 "/>
<path style=" stroke:none;fill-rule:nonzero;fill:rgb(95.686275%,26.274511%,21.176471%);fill-opacity:1;" d="M 7.609375 7.402344 L 8.269531 7.402344 C 8.453125 7.402344 8.601562 7.550781 8.601562 7.734375 L 8.601562 9.71875 C 8.601562 9.898438 8.453125 10.046875 8.269531 10.046875 L 7.609375 10.046875 C 7.425781 10.046875 7.277344 9.898438 7.277344 9.71875 L 7.277344 7.734375 C 7.277344 7.550781 7.425781 7.402344 7.609375 7.402344 Z M 7.609375 7.402344 "/>
<path style=" stroke:none;fill-rule:nonzero;fill:rgb(95.686275%,26.274511%,21.176471%);fill-opacity:1;" d="M 7.9375 10.710938 C 8.304688 10.710938 8.601562 11.003906 8.601562 11.371094 C 8.601562 11.734375 8.304688 12.03125 7.9375 12.03125 C 7.574219 12.03125 7.277344 11.734375 7.277344 11.371094 C 7.277344 11.003906 7.574219 10.710938 7.9375 10.710938 Z M 7.9375 10.710938 "/>
     <defs>
  <style id="current-color-scheme" type="text/css">
   .ColorScheme-Text { color:#eeeeee; } .ColorScheme-Highlight { color:#424242; }
  </style>
 </defs>
<path style="fill:currentColor" class="ColorScheme-Text" d="M 4.628906 3.433594 C 4.996094 3.433594 5.292969 3.730469 5.292969 4.09375 C 5.292969 4.460938 4.996094 4.753906 4.628906 4.753906 C 4.265625 4.753906 3.96875 4.460938 3.96875 4.09375 C 3.96875 3.730469 4.265625 3.433594 4.628906 3.433594 Z M 4.628906 3.433594 "/>
</g>
</svg>
